X: 1
T: The Steeplechase
R: reel
M: 4/4
L: 1/8
K: Cmaj
c2 CD EG G2 | Addc dfed | c2 cG ABcA | G2 EC DCA,C |
G,C C2 EG G2 | Addc dfed | cBcG A2 cA | GEDF EC C2 :|
c2 ec gceg | gedc AGAB | c2 ec gcec | Addc dfed |
c2 ec gcec | cdec d2 cd | eg g2 ea a2 |1 gedc AGAB :|2 gedf ec c2 |


Tune 2281	Setting 26723

